!!!OTL: EIN SCHIFFLEIN SAH ICH FAHREN
!!!ARE: Europa, Mitteleuropa, Deutschland
!!!SCT: E1326A
!!!YEM: Copyright 1995, estate of Helmut Schaffrath.
**kern
*ICvox
*Ivox
*M4/4
*k[b-]
*F:
{4c
=1
4f
4a
8a
8g
4g
=2
2f
4c}
{8f
8a
=3
4cc
4cc
8cc
8b-
4b-
=4
2a
4r}
{8a
8b-
=5
4cc
4cc
4cc
8dd
8cc
=6
8cc
8b-
4b-
4r}
{8cc
8b-
=7
8a
8a
8a
8a
4cc
8b-
8a
=8
8a
8g
4g
4r}
{8cc
8b-
=9
4a
4f
4f
8cc
8b-
=10
4a
4f
4f}
{8cc
8b-
=11
8a
8g
8a
8b-
8a
8g
8a
8b-
=12
8a
8g
8a
8b-
4cc}
{4dd
=13
2cc
4b-
8b-
8b-
=14
2a
4g}
{4g
=15
4a
4g
4a
8b-
8b-
=16
2cc
4f}
==
!!!AGN: Staende -, Soldaten -, Kriegs - Lied
!!!ONB: ESAC (Essen Associative Code) Database: ERK3
!!!AMT: simple quadruple
!!!AIN: vox
!!!EED: Helmut Schaffrath
!!!EEV: 1.0
*-
